images/fq4.svg

<svg width="24" height="24" viewBox="0 0 24 24" fill="none" xmlns="http://www.w3.org/2000/svg">
<path d="M19.0781 16.7344C17.5919 16.7344 16.3828 15.5253 16.3828 14.0391C16.3828 12.5528 17.5919 11.3438 19.0781 11.3438C20.5643 11.3438 21.7734 12.5528 21.7734 14.0391C21.7734 15.5253 20.5643 16.7344 19.0781 16.7344ZM4.92188 16.7344C3.43566 16.7344 2.22656 15.5253 2.22656 14.0391C2.22656 12.5528 3.43566 11.3438 4.92188 11.3438C6.40809 11.3438 7.61719 12.5528 7.61719 14.0391C7.61719 15.5253 6.40809 16.7344 4.92188 16.7344ZM16.6875 1.875C15.799 1.875 15.0002 1.38131 14.6029 0.586688L14.5039 0.388734C14.4455 0.271926 14.3558 0.173688 14.2447 0.105028C14.1336 0.036368 14.0056 8.53782e-08 13.875 3.75547e-10L10.125 3.75547e-10C9.99442 -4.26683e-06 9.86641 0.0363566 9.75533 0.105008C9.64425 0.173659 9.55447 0.271888 9.49608 0.388687L9.39713 0.586594C8.99981 1.38131 8.20102 1.875 7.3125 1.875C6.92419 1.875 6.60938 2.18981 6.60938 2.57812V6.59048C6.60938 8.16802 7.10714 9.67088 8.04881 10.9365C8.99048 12.2022 10.287 13.1108 11.798 13.5641C11.9298 13.6036 12.0702 13.6036 12.202 13.5641C13.713 13.1108 15.0095 12.2022 15.9512 10.9365C16.8929 9.67088 17.3906 8.16802 17.3906 6.59048V2.57812C17.3906 2.18981 17.0758 1.875 16.6875 1.875ZM14.4859 5.96822L11.8343 8.61984C11.697 8.75714 11.517 8.82581 11.3371 8.82581C11.1572 8.82581 10.9772 8.75719 10.84 8.61984L9.51417 7.29403C9.23958 7.01944 9.23958 6.57427 9.51417 6.29967C9.78872 6.02508 10.2339 6.02508 10.5085 6.29967L11.3372 7.12828L13.4917 4.97386C13.7662 4.69927 14.2114 4.69927 14.486 4.97386C14.7605 5.24845 14.7605 5.69362 14.4859 5.96822ZM21.9534 16.961C21.2127 17.69 20.1971 18.1406 19.0781 18.1406C17.9573 18.1406 16.9403 17.6886 16.1993 16.9575C15.8056 17.2409 15.456 17.5808 15.1616 17.9664L15.548 18.3048C16.719 19.3305 17.3906 20.8083 17.3906 22.3594V24H23.2969C23.6852 24 24 23.6852 24 23.2969V20.9531C24 19.3118 23.1922 17.8557 21.9534 16.961ZM2.04656 16.961C0.807797 17.8557 0 19.3118 0 20.9531V23.2969C0 23.6852 0.314812 24 0.703125 24H6.60938V22.3594C6.60938 20.8083 7.281 19.3305 8.45203 18.3048L8.83838 17.9664C8.54405 17.5808 8.1944 17.2409 7.80075 16.9575C7.0597 17.6886 6.04266 18.1406 4.92188 18.1406C3.80288 18.1406 2.78733 17.69 2.04656 16.961ZM14.6214 19.3627C13.9598 20.0531 13.0296 20.4844 12 20.4844C10.9704 20.4844 10.0402 20.0531 9.37856 19.3627C8.54409 20.0935 8.01562 21.1656 8.01562 22.3594V24H15.9844V22.3594C15.9844 21.1656 15.4559 20.0935 14.6214 19.3627ZM12 19.0781C10.7723 19.0781 9.77344 18.0793 9.77344 16.8516C9.77344 15.6238 10.7723 14.625 12 14.625C13.2277 14.625 14.2266 15.6238 14.2266 16.8516C14.2266 18.0793 13.2277 19.0781 12 19.0781Z" fill="#BDD0EA"/>
</svg>

<svg width="24" height="24" fill="none" xmlns="http://www.w3.org/2000/svg"><path d="M19.078 16.734a2.698 2.698 0 01-2.695-2.695 2.698 2.698 0 012.695-2.695 2.698 2.698 0 012.695 2.695 2.698 2.698 0 01-2.695 2.695zm-14.156 0a2.698 2.698 0 01-2.695-2.695 2.698 2.698 0 012.695-2.695 2.698 2.698 0 012.695 2.695 2.698 2.698 0 01-2.695 2.695zM16.687 1.875A2.318 2.318 0 0114.604.587l-.1-.198A.703.703 0 0013.876 0h-3.75a.703.703 0 00-.629.389l-.099.198a2.318 2.318 0 01-2.085 1.288.703.703 0 00-.703.703V6.59a7.23 7.23 0 001.44 4.347 7.229 7.229 0 003.749 2.627c.132.04.272.04.404 0a7.23 7.23 0 003.75-2.627A7.229 7.229 0 0017.39 6.59V2.578a.703.703 0 00-.703-.703zm-2.201 4.093L11.834 8.62a.701.701 0 01-.994 0L9.514 7.294a.703.703 0 01.995-.994l.828.828 2.155-2.154a.703.703 0 11.994.994zm7.467 10.993a4.088 4.088 0 01-2.875 1.18 4.088 4.088 0 01-2.879-1.183 4.927 4.927 0 00-1.037 1.008l.386.339a5.392 5.392 0 011.843 4.054V24h5.906a.703.703 0 00.703-.703v-2.344a4.918 4.918 0 00-2.047-3.992zm-19.906 0A4.919 4.919 0 000 20.953v2.344c0 .388.315.703.703.703H6.61v-1.64a5.39 5.39 0 011.843-4.055l.386-.339a4.926 4.926 0 00-1.037-1.009 4.088 4.088 0 01-2.88 1.184 4.088 4.088 0 01-2.874-1.18zm12.574 2.402a3.622 3.622 0 01-5.242 0 3.975 3.975 0 00-1.363 2.996V24h7.968v-1.64a3.975 3.975 0 00-1.363-2.997zM12 19.078a2.23 2.23 0 01-2.227-2.226A2.23 2.23 0 0112 14.625a2.23 2.23 0 012.227 2.227A2.23 2.23 0 0112 19.078z" fill="#BDD0EA"/></svg>
